X:1
T: Bay Tree, The
C: Andy Cutting
R: Waltz
r:32
M:3/4
L:1/8
K:G
|:"G"B2 BB AB | "Bm6"d3 d BA | "C"G2 FG Ad | "C/D"B3 A GA |
| "G"B2 BB AB | "Bm6"d3 d BA | "C"G2 oyFG Ad | "D"D3 D GA :|
|: "G"B2 GD GB | "Am"c2 EG ce | "Bm6"d2 FB dg | "C"e3 d c2 |
|"G"B2 GD GB | "Am"c2 EG ce | "Bm6"d2 FB dg | "C"e3 d c2 :|
Z: Mackin
